images/446849.svg

<?xml version="1.0" encoding="UTF-8"?>
<svg xmlns="http://www.w3.org/2000/svg" xmlns:xlink="http://www.w3.org/1999/xlink" width="300pt" height="300pt" viewBox="0 0 300 300" version="1.1">
<defs>
<g>
<symbol overflow="visible" id="glyph0-0">
<path style="stroke:none;" d="M 0.546875 1.9375 L 0.546875 -7.75 L 6.046875 -7.75 L 6.046875 1.9375 Z M 1.171875 1.328125 L 5.4375 1.328125 L 5.4375 -7.140625 L 1.171875 -7.140625 Z M 1.171875 1.328125 "/>
</symbol>
<symbol overflow="visible" id="glyph0-1">
<path style="stroke:none;" d="M 4.328125 -7.28125 C 3.546875 -7.28125 2.921875 -6.984375 2.453125 -6.390625 C 1.992188 -5.804688 1.765625 -5.007812 1.765625 -4 C 1.765625 -2.988281 1.992188 -2.1875 2.453125 -1.59375 C 2.921875 -1.007812 3.546875 -0.71875 4.328125 -0.71875 C 5.117188 -0.71875 5.742188 -1.007812 6.203125 -1.59375 C 6.660156 -2.1875 6.890625 -2.988281 6.890625 -4 C 6.890625 -5.007812 6.660156 -5.804688 6.203125 -6.390625 C 5.742188 -6.984375 5.117188 -7.28125 4.328125 -7.28125 Z M 4.328125 -8.171875 C 5.453125 -8.171875 6.351562 -7.789062 7.03125 -7.03125 C 7.707031 -6.28125 8.046875 -5.269531 8.046875 -4 C 8.046875 -2.738281 7.707031 -1.726562 7.03125 -0.96875 C 6.351562 -0.21875 5.453125 0.15625 4.328125 0.15625 C 3.203125 0.15625 2.300781 -0.21875 1.625 -0.96875 C 0.957031 -1.71875 0.625 -2.726562 0.625 -4 C 0.625 -5.269531 0.957031 -6.28125 1.625 -7.03125 C 2.300781 -7.789062 3.203125 -8.171875 4.328125 -8.171875 Z M 4.328125 -8.171875 "/>
</symbol>
<symbol overflow="visible" id="glyph0-2">
<path style="stroke:none;" d="M 1.078125 -8.015625 L 2.171875 -8.015625 L 2.171875 -4.734375 L 6.109375 -4.734375 L 6.109375 -8.015625 L 7.1875 -8.015625 L 7.1875 0 L 6.109375 0 L 6.109375 -3.8125 L 2.171875 -3.8125 L 2.171875 0 L 1.078125 0 Z M 1.078125 -8.015625 "/>
</symbol>
</g>
</defs>
<g id="surface33609">
<rect x="0" y="0" width="300" height="300" style="fill:rgb(100%,100%,100%);fill-opacity:1;stroke:none;"/>
<path style="fill:none;stroke-width:1.2;stroke-linecap:butt;stroke-linejoin:miter;stroke:rgb(0%,0%,0%);stroke-opacity:1;stroke-miterlimit:10;" d="M 142.695312 68.429688 L 133.410156 93.707031 "/>
<path style="fill:none;stroke-width:1;stroke-linecap:butt;stroke-linejoin:miter;stroke:rgb(0%,0%,0%);stroke-opacity:1;stroke-miterlimit:10;" d="M 150.660156 114.386719 L 150.660156 114.386719 M 149.167969 111.78125 L 148.367188 112.449219 M 147.675781 109.179688 L 146.074219 110.515625 M 146.183594 106.578125 L 143.78125 108.582031 M 144.691406 103.972656 L 141.488281 106.644531 M 143.199219 101.371094 L 139.195312 104.710938 M 141.707031 98.769531 L 136.902344 102.777344 M 140.214844 96.167969 L 134.609375 100.84375 M 138.722656 93.5625 L 132.316406 98.90625 M 137.230469 90.960938 L 130.023438 96.972656 M 137.058594 90.664062 L 129.761719 96.75 "/>
<path style="fill:none;stroke-width:1.2;stroke-linecap:butt;stroke-linejoin:miter;stroke:rgb(0%,0%,0%);stroke-opacity:1;stroke-miterlimit:10;" d="M 150.660156 114.386719 L 177.191406 109.785156 "/>
<path style="fill:none;stroke-width:1.2;stroke-linecap:butt;stroke-linejoin:miter;stroke:rgb(0%,0%,0%);stroke-opacity:1;stroke-miterlimit:10;" d="M 141.375 139.660156 L 150.660156 114.386719 "/>
<path style="fill:none;stroke-width:1.2;stroke-linecap:butt;stroke-linejoin:miter;stroke:rgb(0%,0%,0%);stroke-opacity:1;stroke-miterlimit:10;" d="M 177.191406 109.785156 L 194.4375 130.464844 "/>
<path style="fill:none;stroke-width:1.2;stroke-linecap:butt;stroke-linejoin:miter;stroke:rgb(0%,0%,0%);stroke-opacity:1;stroke-miterlimit:10;" d="M 194.4375 130.464844 L 185.15625 155.738281 "/>
<path style="fill:none;stroke-width:1.2;stroke-linecap:butt;stroke-linejoin:miter;stroke:rgb(0%,0%,0%);stroke-opacity:1;stroke-miterlimit:10;" d="M 199.457031 135.175781 L 192.03125 155.398438 "/>
<path style="fill:none;stroke-width:1.2;stroke-linecap:butt;stroke-linejoin:miter;stroke:rgb(0%,0%,0%);stroke-opacity:1;stroke-miterlimit:10;" d="M 220.96875 125.863281 L 194.4375 130.464844 "/>
<path style="fill:none;stroke-width:1.2;stroke-linecap:butt;stroke-linejoin:miter;stroke:rgb(0%,0%,0%);stroke-opacity:1;stroke-miterlimit:10;" d="M 185.15625 155.738281 L 202.402344 176.417969 "/>
<path style="fill:none;stroke-width:1.2;stroke-linecap:butt;stroke-linejoin:miter;stroke:rgb(0%,0%,0%);stroke-opacity:1;stroke-miterlimit:10;" d="M 185.15625 155.738281 L 158.625 160.339844 "/>
<path style="fill:none;stroke-width:1.2;stroke-linecap:butt;stroke-linejoin:miter;stroke:rgb(0%,0%,0%);stroke-opacity:1;stroke-miterlimit:10;" d="M 202.402344 176.417969 L 228.933594 171.820312 "/>
<path style="fill:none;stroke-width:1.2;stroke-linecap:butt;stroke-linejoin:miter;stroke:rgb(0%,0%,0%);stroke-opacity:1;stroke-miterlimit:10;" d="M 203.976562 169.714844 L 225.199219 166.035156 "/>
<path style="fill:none;stroke-width:1.2;stroke-linecap:butt;stroke-linejoin:miter;stroke:rgb(0%,0%,0%);stroke-opacity:1;stroke-miterlimit:10;" d="M 228.933594 171.820312 L 238.21875 146.542969 "/>
<path style="fill:none;stroke-width:1.2;stroke-linecap:butt;stroke-linejoin:miter;stroke:rgb(0%,0%,0%);stroke-opacity:1;stroke-miterlimit:10;" d="M 238.21875 146.542969 L 220.96875 125.863281 "/>
<path style="fill:none;stroke-width:1.2;stroke-linecap:butt;stroke-linejoin:miter;stroke:rgb(0%,0%,0%);stroke-opacity:1;stroke-miterlimit:10;" d="M 231.628906 148.53125 L 217.828125 131.992188 "/>
<path style="fill:none;stroke-width:1.2;stroke-linecap:butt;stroke-linejoin:miter;stroke:rgb(0%,0%,0%);stroke-opacity:1;stroke-miterlimit:10;" d="M 238.21875 146.542969 L 251.484375 144.242188 "/>
<path style="fill:none;stroke-width:1.2;stroke-linecap:butt;stroke-linejoin:miter;stroke:rgb(100%,0%,0%);stroke-opacity:1;stroke-miterlimit:10;" d="M 251.484375 144.242188 L 264.75 141.945312 "/>
<path style=" stroke:none;fill-rule:nonzero;fill:rgb(100%,100%,100%);fill-opacity:1;" d="M 256.75 135.445312 L 273.75 135.445312 L 273.75 148.445312 L 256.75 148.445312 Z M 256.75 135.445312 "/>
<g style="fill:rgb(100%,0%,0%);fill-opacity:1;">
  <use xlink:href="#glyph0-1" x="256.75" y="145.34668"/>
  <use xlink:href="#glyph0-2" x="265.150391" y="145.34668"/>
</g>
<path style="fill:none;stroke-width:1.2;stroke-linecap:butt;stroke-linejoin:miter;stroke:rgb(0%,0%,0%);stroke-opacity:1;stroke-miterlimit:10;" d="M 158.625 160.339844 L 141.375 139.660156 "/>
<path style="fill:none;stroke-width:1.2;stroke-linecap:butt;stroke-linejoin:miter;stroke:rgb(0%,0%,0%);stroke-opacity:1;stroke-miterlimit:10;" d="M 152.035156 162.328125 L 138.234375 145.789062 "/>
<path style="fill:none;stroke-width:1.2;stroke-linecap:butt;stroke-linejoin:miter;stroke:rgb(0%,0%,0%);stroke-opacity:1;stroke-miterlimit:10;" d="M 149.339844 185.613281 L 158.625 160.339844 "/>
<path style="fill:none;stroke-width:1.2;stroke-linecap:butt;stroke-linejoin:miter;stroke:rgb(0%,0%,0%);stroke-opacity:1;stroke-miterlimit:10;" d="M 141.375 139.660156 L 114.84375 144.261719 "/>
<path style="fill:none;stroke-width:1.2;stroke-linecap:butt;stroke-linejoin:miter;stroke:rgb(0%,0%,0%);stroke-opacity:1;stroke-miterlimit:10;" d="M 114.84375 144.261719 L 105.5625 169.535156 "/>
<path style="fill:none;stroke-width:1.2;stroke-linecap:butt;stroke-linejoin:miter;stroke:rgb(0%,0%,0%);stroke-opacity:1;stroke-miterlimit:10;" d="M 107.96875 144.601562 L 100.542969 164.824219 "/>
<path style="fill:none;stroke-width:1.2;stroke-linecap:butt;stroke-linejoin:miter;stroke:rgb(0%,0%,0%);stroke-opacity:1;stroke-miterlimit:10;" d="M 97.597656 123.582031 L 114.84375 144.261719 "/>
<path style="fill:none;stroke-width:1.2;stroke-linecap:butt;stroke-linejoin:miter;stroke:rgb(0%,0%,0%);stroke-opacity:1;stroke-miterlimit:10;" d="M 105.5625 169.535156 L 122.808594 190.214844 "/>
<path style="fill:none;stroke-width:1.2;stroke-linecap:butt;stroke-linejoin:miter;stroke:rgb(0%,0%,0%);stroke-opacity:1;stroke-miterlimit:10;" d="M 105.5625 169.535156 L 79.03125 174.136719 "/>
<path style="fill:none;stroke-width:1.2;stroke-linecap:butt;stroke-linejoin:miter;stroke:rgb(0%,0%,0%);stroke-opacity:1;stroke-miterlimit:10;" d="M 122.808594 190.214844 L 149.339844 185.613281 "/>
<path style="fill:none;stroke-width:1;stroke-linecap:butt;stroke-linejoin:miter;stroke:rgb(0%,0%,0%);stroke-opacity:1;stroke-miterlimit:10;" d="M 149.339844 185.613281 L 149.339844 185.613281 M 150.832031 188.21875 L 151.632812 187.550781 M 152.324219 190.820312 L 153.925781 189.484375 M 153.816406 193.421875 L 156.21875 191.417969 M 155.308594 196.027344 L 158.511719 193.355469 M 156.800781 198.628906 L 160.804688 195.289062 M 158.292969 201.230469 L 163.097656 197.222656 M 159.785156 203.832031 L 165.390625 199.15625 M 161.277344 206.4375 L 167.683594 201.09375 M 162.769531 209.039062 L 169.976562 203.027344 M 162.941406 209.335938 L 170.238281 203.25 "/>
<path style="fill:none;stroke-width:1.2;stroke-linecap:butt;stroke-linejoin:miter;stroke:rgb(0%,0%,0%);stroke-opacity:1;stroke-miterlimit:10;" d="M 166.589844 206.292969 L 157.304688 231.570312 "/>
<path style="fill:none;stroke-width:1.2;stroke-linecap:butt;stroke-linejoin:miter;stroke:rgb(0%,0%,0%);stroke-opacity:1;stroke-miterlimit:10;" d="M 79.03125 174.136719 L 61.78125 153.457031 "/>
<path style="fill:none;stroke-width:1.2;stroke-linecap:butt;stroke-linejoin:miter;stroke:rgb(0%,0%,0%);stroke-opacity:1;stroke-miterlimit:10;" d="M 82.171875 168.007812 L 68.371094 151.46875 "/>
<path style="fill:none;stroke-width:1.2;stroke-linecap:butt;stroke-linejoin:miter;stroke:rgb(0%,0%,0%);stroke-opacity:1;stroke-miterlimit:10;" d="M 61.78125 153.457031 L 71.066406 128.179688 "/>
<path style="fill:none;stroke-width:1.2;stroke-linecap:butt;stroke-linejoin:miter;stroke:rgb(0%,0%,0%);stroke-opacity:1;stroke-miterlimit:10;" d="M 61.78125 153.457031 L 48.515625 155.757812 "/>
<path style="fill:none;stroke-width:1.2;stroke-linecap:butt;stroke-linejoin:miter;stroke:rgb(100%,0%,0%);stroke-opacity:1;stroke-miterlimit:10;" d="M 48.515625 155.757812 L 35.25 158.054688 "/>
<path style="fill:none;stroke-width:1.2;stroke-linecap:butt;stroke-linejoin:miter;stroke:rgb(0%,0%,0%);stroke-opacity:1;stroke-miterlimit:10;" d="M 71.066406 128.179688 L 97.597656 123.582031 "/>
<path style="fill:none;stroke-width:1.2;stroke-linecap:butt;stroke-linejoin:miter;stroke:rgb(0%,0%,0%);stroke-opacity:1;stroke-miterlimit:10;" d="M 74.800781 133.964844 L 96.023438 130.285156 "/>
<path style=" stroke:none;fill-rule:nonzero;fill:rgb(100%,100%,100%);fill-opacity:1;" d="M 18.25 151.554688 L 35.25 151.554688 L 35.25 164.554688 L 18.25 164.554688 Z M 18.25 151.554688 "/>
<g style="fill:rgb(100%,0%,0%);fill-opacity:1;">
  <use xlink:href="#glyph0-2" x="18.25" y="161.456055"/>
  <use xlink:href="#glyph0-1" x="26.274414" y="161.456055"/>
</g>
</g>
</svg>

<svg xmlns="http://www.w3.org/2000/svg" xmlns:xlink="http://www.w3.org/1999/xlink" width="300pt" height="300pt" viewBox="0 0 300 300"><defs><symbol overflow="visible"><path d="M.547 1.938V-7.75h5.5v9.688zm.625-.61h4.266v-8.47H1.171zm0 0"/></symbol><symbol overflow="visible" id="a"><path d="M4.328-7.28c-.78 0-1.406.296-1.875.89-.46.585-.687 1.382-.687 2.39 0 1.012.226 1.813.687 2.406.47.586 1.094.875 1.875.875.79 0 1.414-.288 1.875-.874.457-.593.688-1.394.688-2.406 0-1.008-.23-1.805-.687-2.39-.46-.594-1.086-.89-1.875-.89zm0-.892c1.125 0 2.024.383 2.703 1.14C7.708-6.28 8.048-5.27 8.048-4c0 1.262-.34 2.273-1.016 3.03C6.353-.22 5.454.157 4.33.157S2.3-.22 1.625-.97c-.668-.75-1-1.757-1-3.03 0-1.27.332-2.28 1-3.03.676-.76 1.578-1.142 2.703-1.142zm0 0"/></symbol><symbol overflow="visible" id="b"><path d="M1.078-8.016h1.094v3.282H6.11v-3.282h1.077V0H6.11v-3.813H2.17V0H1.078zm0 0"/></symbol></defs><g><path fill="#fff" d="M0 0h300v300H0z"/><path d="M142.695 68.43l-9.285 25.277" stroke-width="1.2" stroke="#000" stroke-miterlimit="10" fill="none"/><path d="M150.66 114.387m-1.492-2.606l-.8.67m-.692-3.27l-1.602 1.336m.11-3.938l-2.403 2.004m.91-4.61l-3.202 2.673m1.71-5.274l-4.003 3.34m2.512-5.94l-4.805 4.007m3.313-6.61l-5.606 4.677m4.113-7.28l-6.407 5.342m4.914-7.945l-7.207 6.013m7.036-6.31l-7.298 6.087" stroke="#000" stroke-miterlimit="10" fill="none"/><path d="M150.66 114.387l26.53-4.602M141.375 139.66l9.285-25.273M177.19 109.785l17.248 20.68M194.438 130.465l-9.282 25.273M199.457 135.176l-7.426 20.222M220.97 125.863l-26.532 4.602M185.156 155.738l17.246 20.68M185.156 155.738l-26.53 4.602M202.402 176.418l26.532-4.598M203.977 169.715l21.222-3.68M228.934 171.82l9.285-25.277M238.22 146.543l-17.25-20.68M231.63 148.53l-13.802-16.538M238.22 146.543l13.264-2.3" stroke-width="1.2" stroke="#000" stroke-miterlimit="10" fill="none"/><path d="M251.484 144.242l13.266-2.297" stroke-width="1.2" stroke="#f00" stroke-miterlimit="10" fill="none"/><path d="M256.75 135.445h17v13h-17zm0 0" fill="#fff"/><g fill="#f00"><use xlink:href="#a" x="256.75" y="145.347"/><use xlink:href="#b" x="265.15" y="145.347"/></g><path d="M158.625 160.34l-17.25-20.68M152.035 162.328l-13.8-16.54M149.34 185.613l9.285-25.273M141.375 139.66l-26.53 4.602M114.844 144.262l-9.28 25.273M107.97 144.602l-7.427 20.222M97.598 123.582l17.246 20.68M105.563 169.535l17.246 20.68M105.563 169.535l-26.532 4.602M122.81 190.215l26.53-4.602" stroke-width="1.2" stroke="#000" stroke-miterlimit="10" fill="none"/><path d="M149.34 185.613m1.492 2.606l.8-.67m.692 3.27l1.602-1.336m-.11 3.938l2.403-2.004m-.91 4.61l3.202-2.673m-1.71 5.274l4.003-3.34m-2.512 5.94l4.805-4.007m-3.313 6.61l5.606-4.677m-4.113 7.28l6.407-5.342m-4.914 7.945l7.207-6.013m-7.036 6.31l7.298-6.087" stroke="#000" stroke-miterlimit="10" fill="none"/><path d="M166.59 206.293l-9.285 25.277M79.03 174.137l-17.25-20.68M82.172 168.008l-13.8-16.54M61.78 153.457l9.286-25.277M61.78 153.457l-13.264 2.3" stroke-width="1.2" stroke="#000" stroke-miterlimit="10" fill="none"/><path d="M48.516 155.758l-13.266 2.297" stroke-width="1.2" stroke="#f00" stroke-miterlimit="10" fill="none"/><path d="M71.066 128.18l26.532-4.598M74.8 133.965l21.223-3.68" stroke-width="1.2" stroke="#000" stroke-miterlimit="10" fill="none"/><path d="M18.25 151.555h17v13h-17zm0 0" fill="#fff"/><g fill="#f00"><use xlink:href="#b" x="18.25" y="161.456"/><use xlink:href="#a" x="26.274" y="161.456"/></g></g></svg>
